X:1
T:Title
%%score 1 ( 2 3 )
L:1/8
Q:1/4=105
M:6/8
K:Ab
V:1 treble nm="Grand Piano, Soprano"
V:2 bass nm="Choir Pad, Podbrdo, 85.85 D"
V:3 bass 
V:1
 [CEc]2 [CEG] [CEB]2 [CEA] | [CE]2 [_C=D] [=CF]2 [CE] | [Ec]2 [Ec] [Ed]2 [Ec] | [DF]6 | %4
w: By~Mrs.~H.~A.~Fansworth,~1909 * * *||||
 [DFd]2 [DF=A] [DFc]2 [DFB] | [DF]2 [D=E] [DG]2 [DF] | [EG]2 [EG] [EA]2 [E=A] | [EB]3 .[Ge]3 | %8
w: ||||
 [CEc]2 [CEG] [CEB]2 [CEA] | [CE]2 [_C=D] [=CF]2 [CE] | [_Gc]2 [Gc] [GB]2 [GA] | [Fd]6 | %12
w: ||||
 [Fd]2 [DF] [FBe]2 [FBd] | [Ec]2 [CE] [_C=D]2 [=CE] | [DF]2 [Fd] [Ec]2 [DB] | [CA]6- | [CA]3 z3 |] %17
w: |||||
V:2
 [A,,E,]3 [E,,E,]3 | [A,,E,]3 [E,,E,]3 | [A,,A,]3 [=A,,F,]3 | F,2 =E, G,2 F, | [B,,F,]3 [F,,F,]3 | %5
 [B,,F,]3 [B,,B,]3 | [E,B,]2 [E,B,] [E,C]2 [E,C] | D3 .B,3 | [A,,A,]3 [E,,E,]3 | %9
 [A,,E,]3 [E,,E,]3 | [A,,A,]3 [A,,A,][B,,B,][C,C] | D2 G, A,2 F, | %12
 [D,A,]2 [D,A,] [B,,A,]2 [B,,A,] | [E,A,]2 [E,A,] [F,A,]2 [E,A,] | [D,A,]2 [B,,A,] [E,A,]2 [E,G,] | %15
 [A,,A,]6- | [A,,A,]3 z3 |] %17
V:3
 x6 | x6 | x6 | B,,6 | x6 | x6 | x6 | E,6 | x6 | x6 | x6 | D,6 | x6 | x6 | x6 | x6 | x6 |] %17

